packages/icons/src/service-artifactory-ci-step-inverse.svg

<svg fill="none" viewBox="0 0 41 41" xmlns="http://www.w3.org/2000/svg" xmlns:xlink="http://www.w3.org/1999/xlink"><clipPath id="a"><path d="m.661621.967606h40v40h-40z"/></clipPath><g clip-path="url(#a)"><path d="m18.3976 27.0115-2.1107.5874c.1835.5321.3303 1.4866.3303 2.7713v6.3138h2.3678v-6.6808c.4405-.5323.9176-.7893 1.4315-.7893.257 0 .459.0551.6791.1836l.6424-2.1841c-.367-.1652-.5322-.2019-.881-.2019-.2569 0-.5689.055-.7709.1469-.4405.2201-.9911.7156-1.3398 1.193 0-.5324-.1285-.9545-.3487-1.3399zm-8.1492-3.1203h-.25696v12.7745h2.45946v-5.653h3.1018v-2.1108h-3.1018v-2.9367h3.8727l.1468-1.1195c-2.331-.1652-4.4417-.5323-6.222-.9545zm-5.74483 14.4813 1.13795 1.3215c1.10125-.4405 2.4778-1.4315 2.84488-3.01.12849-.5138.16519-.8443.16519-2.5145v-10.2598h-2.4778v10.5352c0 1.3765-.05505 1.8905-.2386 2.3676-.2386.5322-.80759 1.1564-1.43162 1.56zm22.33693-6.4788c0 2.2392-.4405 3.1935-1.45 3.1935-.4589 0-.9729-.257-1.193-.7708-.1835-.4772-.2937-1.2849-.2937-2.386 0-.936.0918-1.5969.2387-2.1107.1835-.5873.6423-.9545 1.2113-.9545.4222 0 .7892.1835 1.0095.4955.3303.4405.4772 1.2665.4772 2.533zm1.45 3.6707c.7708-.9177 1.1195-2.0372 1.1195-3.6524 0-1.5235-.312-2.5696-1.0279-3.4506-.7708-.9544-1.762-1.4132-3.0466-1.4132-2.4229 0-4.038 1.9638-4.038 4.9372 0 2.9733 1.5968 4.8821 4.038 4.8821 1.3765.0184 2.2758-.4955 2.955-1.3031zm6.7175-5.2859c0 .8625-.5139 1.3399-1.4317 1.3399-.8258 0-1.3765-.3855-1.3765-1.3399 0-.881.514-1.395 1.395-1.395s1.4132.514 1.4132 1.395zm4.1663-2.019-.9727-1.5601c-.5506.514-1.2113.8076-1.8538.8076-.2937 0-.4588-.0366-1.1012-.2018-.6425-.1837-1.1013-.2387-1.6151-.2387-2.2944 0-3.781 1.248-3.781 3.1937 0 1.3948.624 2.2758 1.9271 2.6245-.5321.1285-1.1011.4038-1.3581.7158-.1835.2204-.2754.514-.2754.8627 0 .2937.0735.5507.1835.7708.1285.202.2937.3672.514.4589.4222.1651 1.1012.2753 2.1474.2936.5506 0 .881.0184.9911.0184.6425.0368.9729.1468 1.2299.2753.2385.1468.422.4773.422.8443s-.2202.7342-.5689.9544c-.3121.2203-.826.3121-1.4868.3121-1.0828 0-1.6885-.4038-1.6885-1.1563 0-.3303.0367-.4038.1102-.6057h-2.1659c-.0916.1835-.2018.4405-.2018.9544 0 .6423.2385 1.193.7342 1.6701.8075.7894 2.129 1.0095 3.3955 1.0095 1.3948 0 2.753-.3303 3.5423-1.2113.4955-.5507.7158-1.1563.7158-1.9455 0-.8443-.2386-1.4867-.771-2.019-.624-.6057-1.3398-.8258-2.7163-.8443l-1.2665-.0184c-.2385 0-.3853-.0916-.3853-.2201 0-.257.3303-.4772.936-.7709.1835.0184.2386.0184.3486.0184 1.9089 0 3.3039-1.1747 3.3039-2.8082 0-.624-.1835-1.1013-.5324-1.5418.2937.0368.3855.0551.6057.0551.6242 0 1.1197-.202 1.6335-.6975zm-29.54995-15.4724c-2.93665.7158-4.93723 2.129-4.93723 3.7442 0 1.0094.77087 1.9272 2.0373 2.6431-.38545-.6059-.58733-1.2665-.58733-1.9274.01835-1.6701 1.32148-3.2302 3.48726-4.4599zm30.98165 6.3321c0-1.0645-.6607-2.0373-1.762-2.8449.0918.3304.1651.6608.1651.9912 0 3.0284-4.2396 5.6347-10.2598 6.7175.679.0735 1.3765.1102 2.1107.1102 5.3776-.0183 9.746-2.2392 9.746-4.974zm-3.4689-1.6518c0-1.1196-.9545-2.1475-2.588-2.9918.3855.4589.5874.9545.5874 1.4684 0 2.698-5.7265 4.8822-12.8112 4.8822-7.0663 0-12.81108-2.1842-12.81108-4.8822 0-.3488.09178-.6791.27532-.9912-1.13795.7526-1.78035 1.6152-1.78035 2.5329 0 2.9183 6.51571 5.286 14.55481 5.286 8.039 0 14.5731-2.4043 14.5731-5.3043zm-6.3505-.1469c-2.9735 1.9089-12.1136 2.643-16.0415.1835-3.0834-1.9271-2.0189-4.9922-10.84721-11.70981-1.1563-.881.22025-1.81705 1.0829-1.21137.86263.60568.07341.75252 1.81705 2.49615 3.52396 3.52393 3.48726.34872 4.03786 1.56008 1.1747 2.51455 3.7442 5.04735 3.7442 5.04735 2.588 1.6886 4.6436 2.0557 8.4612-.5322 2.4229-1.6336 1.4317 2.6062 7.36-.4589 2.1659-1.1196 2.074-.3671 4.2765-3.43221.9177-1.26642 2.6614.97281.679 1.28481-.7891.1285-2.129.9911-2.698 2.3493-.8258 2.0373-.4771 3.5423-1.872 4.4233zm-16.482-5.1758c-.7341-.3304-1.505-1.5785-1.7987-2.074.826-.8076.4956-2.14745.0184-2.88161-.4589-.73415-1.0278-.53227-1.6335-1.21137-.6241-.6791.2386-2.44108 1.0278-1.08288 2.955 5.08406 4.9005 2.97335 7.3049 2.66133 2.3126-.29367 4.3683.97277 4.9923-2.60627.1102-.58733.6792-.71581.7342.2386.055.97277.4221 3.32209 1.6886 3.61574 1.2664.31203 2.2942-.29365 2.5879-.62404.2936-.33036.4588-.29366.5873.55064.1285.82591.4588 1.98226 2.2392.69745 3.6525-2.60629 2.6063-3.61575 4.0378-4.29485.8077-.38544 2.0925.86263.2387 1.7987-2.643 1.33983-2.9184 2.9917-4.5885 4.03786-2.8082 1.762-1.9455.0734-6.4607-.5689-1.7435-.2387-2.2942 1.6885-3.6523 1.1379-3.1019-1.2848-5.2861-1.0278-7.3234.6057zm9.7827-9.41565c.1102.77089.2387.75252.514.80759.2753.07341.624-.36709.624-.77087.0183-.42215-.1835-.6791-.5873-.66075-.4222.01835-.569.22025-.5507.62403zm13.582 1.37657c.3303.31202 1.2113.11012 1.4133-.12848.5322-.58734.5505-.93607.2754-1.33985-.2754-.38544-.8444-.33037-1.4134.09176-.569.42215-.4588 1.21137-.2753 1.37657zm-.2385 3.89105c-.2753.36708-.2937.64238-.0918.84428.2201.22025.6606.40379.9728.16519.312-.25695.312-.62404.055-.93605-.2753-.33039-.6423-.33039-.936-.07342zm-27.86151-4.58852c.42215.12849.62401.53227.97281.07342.1835-.22025.2019-.53227-.0368-.86263-.1468-.2019-.84425-.34874-1.13791-.05507-.29365.29367-.01835.77087.2019.84428zm-8.608043-.25695c.770873.4772 1.266433 1.19302 1.853753.55062.2019-.22025.4405-.60568.01835-1.37655-.31201-.56897-1.32148-.78922-1.67021-.56897-.367079.20189-.807576 1.02782-.201893 1.3949zm7.103003 3.65245c.2386.25697.66075.2386.9177.09177.2386-.14683.2019-.53227-.0367-.86263-.14683-.2019-.58733-.31202-.881 0-.29366.31201-.16518.58733 0 .77086z" fill="#fff"/></g></svg>

<svg viewBox="0 0 41 41" fill="none" xmlns="http://www.w3.org/2000/svg">
<g clip-path="url(#clip0_2952_319001)">
<path d="M18.3976 27.0115L16.2869 27.5989C16.4704 28.131 16.6172 29.0855 16.6172 30.3702V36.684H18.985V30.0032C19.4255 29.4709 19.9026 29.2139 20.4165 29.2139C20.6735 29.2139 20.8755 29.269 21.0956 29.3975L21.738 27.2134C21.371 27.0482 21.2058 27.0115 20.857 27.0115C20.6001 27.0115 20.2881 27.0665 20.0861 27.1584C19.6456 27.3785 19.095 27.874 18.7463 28.3514C18.7463 27.819 18.6178 27.3969 18.3976 27.0115ZM10.2484 23.8912H9.99144V36.6657H12.4509V31.0127H15.5527V28.9019H12.4509V25.9652H16.3236L16.4704 24.8457C14.1394 24.6805 12.0287 24.3134 10.2484 23.8912ZM4.50357 38.3725L5.64152 39.694C6.74277 39.2535 8.11932 38.2625 8.4864 36.684C8.61489 36.1702 8.65159 35.8397 8.65159 34.1695V23.9097H6.17379V34.4449C6.17379 35.8214 6.11874 36.3354 5.93519 36.8125C5.69659 37.3447 5.1276 37.9689 4.50357 38.3725ZM26.8405 31.8937C26.8405 34.1329 26.4 35.0872 25.3905 35.0872C24.9316 35.0872 24.4176 34.8302 24.1975 34.3164C24.014 33.8392 23.9038 33.0315 23.9038 31.9304C23.9038 30.9944 23.9956 30.3335 24.1425 29.8197C24.326 29.2324 24.7848 28.8652 25.3538 28.8652C25.776 28.8652 26.143 29.0487 26.3633 29.3607C26.6936 29.8012 26.8405 30.6272 26.8405 31.8937ZM28.2905 35.5644C29.0613 34.6467 29.41 33.5272 29.41 31.912C29.41 30.3885 29.098 29.3424 28.3821 28.4614C27.6113 27.507 26.6201 27.0482 25.3355 27.0482C22.9126 27.0482 21.2975 29.012 21.2975 31.9854C21.2975 34.9587 22.8943 36.8675 25.3355 36.8675C26.712 36.8859 27.6113 36.372 28.2905 35.5644ZM35.008 30.2785C35.008 31.141 34.4941 31.6184 33.5763 31.6184C32.7505 31.6184 32.1998 31.2329 32.1998 30.2785C32.1998 29.3975 32.7138 28.8835 33.5948 28.8835C34.4758 28.8835 35.008 29.3975 35.008 30.2785ZM39.1743 28.2595L38.2016 26.6994C37.651 27.2134 36.9903 27.507 36.3478 27.507C36.0541 27.507 35.889 27.4704 35.2466 27.3052C34.6041 27.1215 34.1453 27.0665 33.6315 27.0665C31.3371 27.0665 29.8505 28.3145 29.8505 30.2602C29.8505 31.655 30.4745 32.536 31.7776 32.8847C31.2455 33.0132 30.6765 33.2885 30.4195 33.6005C30.236 33.8209 30.1441 34.1145 30.1441 34.4632C30.1441 34.7569 30.2176 35.0139 30.3276 35.234C30.4561 35.436 30.6213 35.6012 30.8416 35.6929C31.2638 35.858 31.9428 35.9682 32.989 35.9865C33.5396 35.9865 33.87 36.0049 33.9801 36.0049C34.6226 36.0417 34.953 36.1517 35.21 36.2802C35.4485 36.427 35.632 36.7575 35.632 37.1245C35.632 37.4915 35.4118 37.8587 35.0631 38.0789C34.751 38.2992 34.2371 38.391 33.5763 38.391C32.4935 38.391 31.8878 37.9872 31.8878 37.2347C31.8878 36.9044 31.9245 36.8309 31.998 36.629H29.8321C29.7405 36.8125 29.6303 37.0695 29.6303 37.5834C29.6303 38.2257 29.8688 38.7764 30.3645 39.2535C31.172 40.0429 32.4935 40.263 33.76 40.263C35.1548 40.263 36.513 39.9327 37.3023 39.0517C37.7978 38.501 38.0181 37.8954 38.0181 37.1062C38.0181 36.2619 37.7795 35.6195 37.2471 35.0872C36.6231 34.4815 35.9073 34.2614 34.5308 34.2429L33.2643 34.2245C33.0258 34.2245 32.879 34.1329 32.879 34.0044C32.879 33.7474 33.2093 33.5272 33.815 33.2335C33.9985 33.2519 34.0536 33.2519 34.1636 33.2519C36.0725 33.2519 37.4675 32.0772 37.4675 30.4437C37.4675 29.8197 37.284 29.3424 36.9351 28.9019C37.2288 28.9387 37.3206 28.957 37.5408 28.957C38.165 28.957 38.6605 28.755 39.1743 28.2595ZM9.62435 12.7871C6.6877 13.5029 4.68712 14.9161 4.68712 16.5313C4.68712 17.5407 5.45799 18.4585 6.72442 19.1744C6.33897 18.5685 6.13709 17.9079 6.13709 17.247C6.15544 15.5769 7.45857 14.0168 9.62435 12.7871ZM40.606 19.1192C40.606 18.0547 39.9453 17.0819 38.844 16.2743C38.9358 16.6047 39.0091 16.9351 39.0091 17.2655C39.0091 20.2939 34.7695 22.9002 28.7493 23.983C29.4283 24.0565 30.1258 24.0932 30.86 24.0932C36.2376 24.0749 40.606 21.854 40.606 19.1192ZM37.1371 17.4674C37.1371 16.3478 36.1826 15.3199 34.5491 14.4756C34.9346 14.9345 35.1365 15.4301 35.1365 15.944C35.1365 18.642 29.41 20.8262 22.3253 20.8262C15.259 20.8262 9.51422 18.642 9.51422 15.944C9.51422 15.5952 9.606 15.2649 9.78954 14.9528C8.65159 15.7054 8.00919 16.568 8.00919 17.4857C8.00919 20.404 14.5249 22.7717 22.564 22.7717C30.603 22.7717 37.1371 20.3674 37.1371 17.4674ZM30.7866 17.3205C27.8131 19.2294 18.673 19.9635 14.7451 17.504C11.6617 15.5769 12.7262 12.5118 3.89789 5.79419C2.74159 4.91319 4.11814 3.97714 4.98079 4.58282C5.84342 5.1885 5.0542 5.33534 6.79784 7.07897C10.3218 10.6029 10.2851 7.42769 10.8357 8.63905C12.0104 11.1536 14.5799 13.6864 14.5799 13.6864C17.1679 15.375 19.2235 15.7421 23.0411 13.1542C25.464 11.5206 24.4728 15.7604 30.4011 12.6953C32.567 11.5757 32.4751 12.3282 34.6776 9.26309C35.5953 7.99667 37.339 10.2359 35.3566 10.5479C34.5675 10.6764 33.2276 11.539 32.6586 12.8972C31.8328 14.9345 32.1815 16.4395 30.7866 17.3205ZM14.3046 12.1447C13.5705 11.8143 12.7996 10.5662 12.5059 10.0707C13.3319 9.2631 13.0015 7.92325 12.5243 7.18909C12.0654 6.45494 11.4965 6.65682 10.8908 5.97772C10.2667 5.29862 11.1294 3.53664 11.9186 4.89484C14.8736 9.9789 16.8191 7.86819 19.2235 7.55617C21.5361 7.2625 23.5918 8.52894 24.2158 4.9499C24.326 4.36257 24.895 4.23409 24.95 5.1885C25.005 6.16127 25.3721 8.51059 26.6386 8.80424C27.905 9.11627 28.9328 8.51059 29.2265 8.1802C29.5201 7.84984 29.6853 7.88654 29.8138 8.73084C29.9423 9.55675 30.2726 10.7131 32.053 9.42829C35.7055 6.822 34.6593 5.81254 36.0908 5.13344C36.8985 4.748 38.1833 5.99607 36.3295 6.93214C33.6865 8.27197 33.4111 9.92384 31.741 10.97C28.9328 12.732 29.7955 11.0434 25.2803 10.4011C23.5368 10.1624 22.9861 12.0896 21.628 11.539C18.5261 10.2542 16.3419 10.5112 14.3046 12.1447ZM24.0873 2.72905C24.1975 3.49994 24.326 3.48157 24.6013 3.53664C24.8766 3.61005 25.2253 3.16955 25.2253 2.76577C25.2436 2.34362 25.0418 2.08667 24.638 2.10502C24.2158 2.12337 24.069 2.32527 24.0873 2.72905ZM37.6693 4.10562C37.9996 4.41764 38.8806 4.21574 39.0826 3.97714C39.6148 3.3898 39.6331 3.04107 39.358 2.63729C39.0826 2.25185 38.5136 2.30692 37.9446 2.72905C37.3756 3.1512 37.4858 3.94042 37.6693 4.10562ZM37.4308 7.99667C37.1555 8.36375 37.1371 8.63905 37.339 8.84095C37.5591 9.0612 37.9996 9.24474 38.3118 9.00614C38.6238 8.74919 38.6238 8.3821 38.3668 8.07009C38.0915 7.7397 37.7245 7.7397 37.4308 7.99667ZM9.56929 3.40815C9.99144 3.53664 10.1933 3.94042 10.5421 3.48157C10.7256 3.26132 10.744 2.9493 10.5053 2.61894C10.3585 2.41704 9.66105 2.2702 9.36739 2.56387C9.07374 2.85754 9.34904 3.33474 9.56929 3.40815ZM0.961247 3.1512C1.73212 3.6284 2.22768 4.34422 2.815 3.70182C3.0169 3.48157 3.2555 3.09614 2.83335 2.32527C2.52134 1.7563 1.51187 1.53605 1.16314 1.7563C0.796061 1.95819 0.355564 2.78412 0.961247 3.1512ZM8.06425 6.80365C8.30285 7.06062 8.725 7.04225 8.98195 6.89542C9.22055 6.74859 9.18385 6.36315 8.94525 6.03279C8.79842 5.83089 8.35792 5.72077 8.06425 6.03279C7.77059 6.3448 7.89907 6.62012 8.06425 6.80365Z" fill="white"/>
</g>
<defs>
<clipPath id="clip0_2952_319001">
<rect width="40" height="40" fill="white" transform="translate(0.661621 0.967606)"/>
</clipPath>
</defs>
</svg>
